static/img/in-field/nav-state-white-default-dark.svg

<svg fill="none" height="64" viewBox="0 0 279 64" width="279" xmlns="http://www.w3.org/2000/svg"><path d="m.75.5h277v63h-277z" fill="#171c1e"/><path clip-rule="evenodd" d="m131.25 26.6667v-2.6667h24v2.6667zm0 6.6666h24v-2.6666h-24zm0 6.6667h24v-2.6667h-24z" fill="#fff" fill-rule="evenodd"/><path d="m.75.5h277v63h-277z" stroke="#a3a6b1"/></svg>

<svg width="279" height="64" viewBox="0 0 279 64" fill="none" xmlns="http://www.w3.org/2000/svg"><rect x=".75" y=".5" width="277" height="63" fill="#171C1E"/><path fill-rule="evenodd" clip-rule="evenodd" d="M131.25 26.6667V24H155.25V26.6667H131.25ZM131.25 33.3333H155.25V30.6667H131.25V33.3333ZM131.25 40H155.25V37.3333H131.25V40Z" fill="#fff"/><rect x=".75" y=".5" width="277" height="63" stroke="#A3A6B1"/></svg>
